libs/ui/packages/crypto-icons/src/svg/XSG.svg

<svg width="24" height="24" viewBox="0 0 24 24" fill="none">
<path d="M12.1226 4.71525V2.57401L20.0921 7.173L18.2494 8.244L12.1226 4.71525ZM18.3716 15.528V8.472L20.2324 7.401V16.599L18.3724 15.528H18.3716ZM12.1226 19.2848L18.2494 15.7568L20.0921 16.827L12.1226 21.426V19.2848ZM3.89064 16.827L5.75064 15.7568L11.8594 19.2848V21.426L3.89064 16.827ZM3.76764 7.401L5.61039 8.472V15.528L3.76764 16.599V7.401ZM3.89064 7.173L11.8594 2.57401V4.71525L5.75139 8.244L3.89064 7.173ZM12.0086 4.917L5.86539 8.4465V15.5378L12.0086 19.0838L18.1346 15.5378V8.4465L12.0086 4.91775V4.917ZM16.9414 11.2545L16.6781 11.7105L14.9231 10.728L12.6761 11.991L14.9224 13.2548L16.6774 12.2723L16.9414 12.7283L15.4669 13.5533L16.9414 14.3783L16.6781 14.835L15.2036 14.01V15.66H14.6591V13.7115L12.4129 12.4478V14.9753L14.1506 15.9405L13.8874 16.3883L12.4129 15.5633V17.2133H11.8676V15.5633L10.3931 16.3883L10.1126 15.9323L11.8676 14.9663V12.4478L9.62064 13.7115V15.66H9.05889V14.01L7.60239 14.835L7.32114 14.3783L8.79564 13.5533L7.32114 12.7283L7.60239 12.2723L9.34014 13.2548L11.6044 11.991L9.33939 10.7273L7.60239 11.7098L7.32114 11.2538L8.79564 10.4288L7.32114 9.60375L7.60239 9.14775L9.05889 9.97275V8.31375H9.62139V10.2623L11.8676 11.526V9.0075L10.1299 8.0415L10.3931 7.5855L11.8676 8.4105V6.7605H12.4121V8.4105L13.8866 7.5855L14.1491 8.0415L12.4121 9.0075V11.535L14.6584 10.2713V8.31375H15.2029V9.96375L16.6774 9.13875L16.9399 9.5955L15.4661 10.4205L16.9406 11.2538L16.9414 11.2545Z" fill="#D21E2B"/>
</svg>

<svg width="24" height="24" viewBox="0 0 24 24" fill="none"><path fill="#d21e2b" d="M12.123 4.715V2.574l7.97 4.599-1.844 1.071zm6.249 10.813V8.472l1.86-1.071v9.198zm-6.25 3.757 6.127-3.528 1.843 1.07-7.97 4.599zm-8.231-2.458 1.86-1.07 6.108 3.528v2.141zm-.123-9.426L5.61 8.472v7.056l-1.842 1.071zm.123-.228 7.968-4.599v2.141L5.751 8.244zm8.118-2.256-6.144 3.53v7.09l6.144 3.547 6.126-3.546V8.447zm4.932 6.338-.263.455-1.755-.982-2.247 1.263 2.246 1.264 1.755-.983.264.456-1.474.825 1.474.825-.263.457-1.474-.825v1.65h-.545v-1.949l-2.246-1.263v2.527l1.738.966-.264.447-1.474-.825v1.65h-.545v-1.65l-1.475.825-.28-.456 1.755-.966v-2.518L9.62 13.71v1.949h-.562v-1.65l-1.457.825-.28-.457 1.474-.825-1.475-.825.281-.456 1.738.983 2.264-1.264-2.265-1.264-1.737.983-.28-.456 1.474-.825-1.475-.825.281-.456 1.457.825v-1.66h.562v1.95l2.247 1.263V9.008l-1.738-.966.263-.457 1.475.826V6.76h.544v1.65l1.475-.825.262.455-1.737.966v2.528l2.246-1.264V8.314h.545v1.65l1.474-.825.263.457-1.474.825z"/></svg>
